Origami/24x24/apps/pspp.svg

<svg width="24" height="24" version="1" xmlns="http://www.w3.org/2000/svg">
 <circle cx="11" cy="12.5" r="9" style="opacity:.2"/>
 <circle cx="11" cy="12" r="9" style="fill:#ad3f36"/>
 <path d="M 11,2.9999996 A 9.0000002,9.0000002 0 0 0 2,12 9.0000002,9.0000002 0 0 0 2.0107422,12.292969 9.0000002,9.0000002 0 0 1 11,3.4999996 9.0000002,9.0000002 0 0 1 19.989258,12.207031 9.0000002,9.0000002 0 0 0 20,12 9.0000002,9.0000002 0 0 0 11,2.9999996 Z" style="fill:#ffffff;opacity:.1"/>
 <path d="m18.778175 19.75-7.778175-7.778176 7.778175-7.7781741c4.295767 4.2957669 4.295767 11.260583 0 15.55635z" style="opacity:.2"/>
 <path d="m18.778175 19.25-7.778175-7.778176 7.778175-7.7781741c4.295767 4.2957669 4.295767 11.260583 0 15.55635z" style="fill:#3b8ae0"/>
 <path d="M 11,2.4999996 11,12 17.717774,5.2822261 C 15.998612,3.5630643 13.623353,2.4999996 11,2.4999996 Z" style="opacity:.2"/>
 <path d="M 11,1.9999996 11,11.5 17.717774,4.7822261 C 15.998612,3.0630643 13.623353,1.9999996 11,1.9999996 Z" style="fill:#7dc564"/>
 <path d="m11 2v0.5c2.495987 0 4.761636 0.9688009 6.457031 2.5429688l0.261719-0.2617188c-1.719162-1.7191618-4.095397-2.78125-6.71875-2.78125z" style="fill:#ffffff;opacity:.1"/>
</svg>

<svg xmlns="http://www.w3.org/2000/svg" width="24" height="24" version="1">
 <circle style="opacity:0.2" cx="11" cy="12.5" r="9"/>
 <circle style="fill:#ad3f36" cx="11" cy="12" r="9"/>
 <path style="opacity:0.1;fill:#ffffff" d="M 11,2.9999996 A 9.0000002,9.0000002 0 0 0 2,12 9.0000002,9.0000002 0 0 0 2.0107422,12.292969 9.0000002,9.0000002 0 0 1 11,3.4999996 9.0000002,9.0000002 0 0 1 19.989258,12.207031 9.0000002,9.0000002 0 0 0 20,12 9.0000002,9.0000002 0 0 0 11,2.9999996 Z"/>
 <path style="opacity:0.2" d="M 18.778175,19.75 11,11.971824 18.778175,4.1936499 c 4.295767,4.2957669 4.295767,11.2605831 0,15.5563501 z"/>
 <path style="fill:#3b8ae0" d="M 18.778175,19.25 11,11.471824 18.778175,3.6936499 c 4.295767,4.2957669 4.295767,11.2605831 0,15.5563501 z"/>
 <path style="opacity:0.2" d="M 11,2.4999996 11,12 17.717774,5.2822261 C 15.998612,3.5630643 13.623353,2.4999996 11,2.4999996 Z"/>
 <path style="fill:#7dc564" d="M 11,1.9999996 11,11.5 17.717774,4.7822261 C 15.998612,3.0630643 13.623353,1.9999996 11,1.9999996 Z"/>
 <path style="fill:#ffffff;opacity:0.1" d="M 11 2 L 11 2.5 C 13.495987 2.5 15.761636 3.4688009 17.457031 5.0429688 L 17.71875 4.78125 C 15.999588 3.0620882 13.623353 2 11 2 z"/>
</svg>
